X:1
T:Standin In The Need of Prayer
T:There's a meeting here tonight
T:Copyright 1881 by The Riverside Press
T:Rodeheaver's Plantation Melodies
T:Rodeheaver's Plantation Melodies
Z:Rodeheaver's Plantation Melodies
%%score [ 1 2 3 4 ]
L:1/8
Q:1/4=100
M:4/4
K:D
V:1 treble nm="Soprano" snm="S."
V:2 treble nm="Alto" snm="A."
V:3 bass nm="Tenor" snm="T."
V:4 bass nm="Bass" snm="B."
V:1
 B/A/B/B/ A/A/ | F<F F>F FB/A/ | BA/A/ | E<E E>E E3 F | DFAd | dB GG/G/ | F<F E>E D3 :| A | dd | %9
w: Get you rea- dy, there's a||long there's a|||||Camp|meet- ing|
 ccdB AA/A/ | B<B c>c d2 z A | ddcc dB AG/G/ | F<F E>E D!D.C.! |] %13
w: down in/the wild- der- ness. * *|* * * * * I|know it's among the Me- tho- dists. There's a|meet- ing here to- night.|
V:2
 z2 z | D<D D>D DB/A/ | z2 | C<C C>C C3 D | DDFF | GG GE/E/ | D<D C>C D3 :| z | z2 | z4 z F/F/ | %10
w: |meet- ing here to- night. Come a-||meet- ing here to- night. I|know you by your|dai- ly walk. There's a|meet- ing here to- night.|||There's a|
 G<G G>G F2 z2 | z4 z2 z E/E/ | D<D C>C D |] %13
w: meet- ing here to- night.|||
V:3
 z2 z | A,<A, A,>A, A, z | z2 | A,<A, A,>A, A,3 A, | F,A,DA, | B,D DB,/B,/ | A,<A, G,>G, F,3 :| z | %8
 z2 | z4 z D/D/ | D<D A,>A, A,2 z2 | z4 z2 z A,/A,/ | A,<A, G,>G, F, |] %13
V:4
 z2 z | D,<D, D,>D, D, z | z2 | A,,<A,, A,,>A,, A,,3 D, | D,D,D,D, | G,G, G,G,/G,/ | %6
 A,<A, A,,>A,, D,3 :| z | z2 | z4 z D,/D,/ | G,<G, A,>A, D,2 z2 | %11
"_2. Those angels wings are tipped with gold, etc. That brought glad tidings to my soul, etc.\n\n3. My father says it is the best, etc. To live and die a Methodist, etc.\n\n4. I'm a Methodist bred and a Methodist born, etc. And when I'm dead there's a Methodist gone, etc." z4 z2 z G,/G,/ | %12
 A,<A, A,,>A,, D, |] %13

